src/assets/svg/logoWOtext.svg

<svg width="139.533" height="54.854" fill="none" xmlns="http://www.w3.org/2000/svg">
  <path d="m125.93 41.31 2.08.96c-.97-2.45-2.32-5.81-3.59-8.13l-.58-1.06-.91.84c-1.4 1.36-3.99 1.04-4.95-.63-1.05-1.57-.23-3.86 1.61-4.43l1.41-.47c-1.91-2.72-4.01-5.35-6.33-7.75l-1.1-1.16-.86 1.36c-.91 1.53-3.27 1.85-4.53.59-1.32-1.17-1.14-3.41.36-4.33l1.5-.98-1.41-1.14c-2.68-2.21-5.64-4.18-8.64-5.97l-.53 1.8c-.8 2.68-4.84 2.5-5.34-.25-.15-.79.1-1.6.63-2.19l1.34-1.47C92.86 5.4 89.52 4.02 86.1 3l-1.99-.61-.03 2.04c.01 1.59-1.69 2.88-3.26 2.44-1.58-.33-2.47-2.19-1.7-3.57l.99-1.9C75.82.58 71.37.11 67.01 0l.53 2.12c.4 1.47-.83 3.07-2.4 3.05-1.57.07-2.87-1.45-2.52-2.94l.46-2.16-2.26.19c-3.65.27-7.33.95-10.9 1.74l1.12 1.95c.36.64.42 1.44.13 2.12-.55 1.43-2.54 2-3.8 1.08a2.458 2.458 0 0 1-1.09-1.89l-.12-2.15c-4.13 1.36-8.21 3.1-12.04 5.13l1.52 1.49c.55.54.82 1.34.72 2.1-.34 2.69-4.29 3.06-5.18.47l-.64-1.86c-2.94 1.95-5.83 4.07-8.42 6.43l-1.39 1.27 1.6.89c2.63 1.52 1.28 5.46-1.78 5.24-.91-.06-1.76-.54-2.28-1.29l-.87-1.23c-2.18 2.5-4.24 5.15-6.03 7.93l-.7 1.08 1.23.32c3.4.94 3.11 5.76-.4 6.36-1.03.19-2.14-.11-2.94-.8l-.68-.58c-.66 1.36-1.28 2.74-1.86 4.14.55-.3 1.12-.57 1.7-.82.2-.42.41-.83.62-1.25.38.25.79.43 1.22.56 1.6-.53 3.26-.9 4.96-1.17.31-.29.58-.62.8-1 1.45-2.24.54-5.34-1.7-6.7 1.15-1.57 2.38-3.09 3.67-4.55 2.03 1.79 5.52 1.85 7.48-.18 2.05-1.87 2.07-5.12.4-7.18 1.31-1.06 2.66-2.08 4.05-3.04.64.82 1.52 1.48 2.51 1.84 5.06 1.81 9.27-3.21 7.39-7.43 1.43-.66 2.89-1.27 4.37-1.82.42.92 1.08 1.74 1.93 2.31 4.47 3.05 9.94-.79 9.29-5.38 1.5-.27 3.02-.5 4.55-.67.52 2.65 3.05 4.88 5.95 4.73 2.92.01 5.35-2.33 5.72-5.01 1.57.1 3.13.25 4.68.46-.09 1 .09 2.01.53 2.91 1.47 3.21 6.07 4.27 8.85 2.03.83-.63 1.46-1.49 1.82-2.44 1.57.5 3.11 1.07 4.63 1.69-.37.95-.47 2-.27 2.98.56 3.4 4.62 5.51 7.83 4.08.98-.41 1.83-1.09 2.43-1.94 1.45.91 2.87 1.89 4.25 2.91-1.58 2.12-1.41 5.37.7 7.16 2.04 1.93 5.43 1.79 7.44.01 1.28 1.34 2.49 2.74 3.64 4.18-3.59 2.58-2.41 8.64 2.57 9.2 1.13.13 2.29-.14 3.25-.71.97 1.74 1.85 3.53 2.64 5.35h.01Z" fill="#FCFCFC"/>
  <path d="M111.71 40.32h.16c-8.74-15.91-25.88-27.12-45.92-27.04C51 13.2 36.21 19.83 26.6 30.95a48.444 48.444 0 0 0-4.5 5.93c.68-.01 1.36-.01 2.04 0 3.26-4.46 7.28-8.39 11.92-11.53C47.6 17.3 62.6 14.22 76.49 17.11c14.75 2.88 27.98 11.24 35.22 23.21ZM117.35 44.91c-5.78-.16-11.58 3.54-13.1 8.49 3.26-4.48 7.47-6.5 12.58-6.5 5.11-.01 9.31 2.07 12.46 6.34-1.5-4.2-6.23-8.18-11.94-8.33Z" fill="#FCFCFC"/>
  <path d="M139.25 52.33c-.61-.59-1.2-1.2-1.83-1.76-5.15-4.58-11.18-7.31-17.67-9.06-8.44-2.29-17.05-2.81-25.73-2.78-.49 0-1.03-.16-1.49-.39-3.67-1.83-7.27-3.86-11.01-5.53-6.81-3.04-13.94-4.62-21.4-4.58-9 .04-17.9 1.09-26.74 2.82-6.15 1.21-12.21 2.76-18.21 4.55l.03-.02s-7.9 1.36-9.8-1.71l-3.87-.73s.54 2.69-.79 8.59c-.55.72-.84 1.55-.72 2.54.32 2.51 1.86 4.3 3.47 6.24.02-.3.04-.4.04-.5.22-10.73 16.74-11.26 21.22-10.27 7.8 1.74 11.67 2.12 32.39 15.11.05-.09-11.63-9.03-18.34-12.68-1.53-.83-3.21-1.35-4.84-1.95-1.58-.58-3.2-1.07-4.8-1.6.02-.1.05-.21.08-.31 2.24.53 4.49 1 6.72 1.58 3.41.91 6.77 2.11 10.23 2.79 4.56.89 9.18 1.53 13.8 2.05 8.37.96 40.24 2.56 40.69 2.51-.52-.17-31.88-4.74-37.68-5.52-4.21-.57-8.44-1.02-12.61-1.79-1.87-.35-3.64-1.31-5.44-2.04-2.21-.9-4.4-1.86-6.6-2.79-.3-.13-.59-.3-.88-.46 0-.1.01-.2.01-.3 1.87-.31 3.72-.66 5.59-.94 6.93-1.05 13.89-1.71 20.91-1.52 2.36.06 4.69.28 6.99.63 5.01 1.38 9.77 3.48 14.37 6.01.1.05.18.14.37.29-2.39-.26-4.64-.57-6.9-.74-1.12-.09-1.95-.39-2.42-1.53-.2-.47-.58-1.03-1-1.18-1.13-.42-2.32-.69-3.51-.91-.91-.17-1.38.17-1.8 1.04-.71 1.48.3 3.26 1.89 3.37 3.22.23 6.44.49 9.66.74 2.94.22 5.88.53 8.82.65 3.38.14 6.76.07 10.14.19 6.39.24 12.7 1.12 18.89 2.84 5.76 1.6 10.94 4.17 14.44 9.48.1.14.32.29.48.29 1.66-.08 3.31-.2 5.13-.31-.17-.24-.22-.34-.28-.4v-.01Z" fill="#FCFCFC"/>
</svg>

<svg width="139.533325" height="54.853638" viewBox="0 0 139.533 54.8536" fill="none" xmlns="http://www.w3.org/2000/svg" xmlns:xlink="http://www.w3.org/1999/xlink">
	<desc>
			Created with Pixso.
	</desc>
	<defs/>
	<path id="Vector" d="M125.93 41.31L128.01 42.27C127.04 39.82 125.69 36.46 124.42 34.14L123.84 33.08L122.93 33.92C121.53 35.28 118.94 34.96 117.98 33.29C116.93 31.72 117.75 29.43 119.59 28.86L121 28.39C119.09 25.67 116.99 23.04 114.67 20.64L113.57 19.48L112.71 20.84C111.8 22.37 109.44 22.69 108.18 21.43C106.86 20.26 107.04 18.02 108.54 17.1L110.04 16.12L108.63 14.98C105.95 12.77 102.99 10.8 99.99 9.01L99.46 10.81C98.66 13.49 94.62 13.31 94.12 10.56C93.97 9.77 94.22 8.96 94.75 8.37L96.09 6.9C92.86 5.4 89.52 4.02 86.1 3L84.11 2.39L84.08 4.43C84.09 6.02 82.39 7.31 80.82 6.87C79.24 6.54 78.35 4.68 79.12 3.3L80.11 1.4C75.82 0.58 71.37 0.11 67.01 0L67.54 2.12C67.94 3.59 66.71 5.19 65.14 5.17C63.57 5.24 62.27 3.72 62.62 2.23L63.08 0.07L60.82 0.26C57.17 0.53 53.49 1.21 49.92 2L51.04 3.95C51.4 4.59 51.46 5.39 51.17 6.07C50.62 7.5 48.63 8.07 47.37 7.15C46.73 6.73 46.33 6.02 46.28 5.26L46.16 3.11C42.03 4.47 37.95 6.21 34.12 8.24L35.64 9.73C36.19 10.27 36.46 11.07 36.36 11.83C36.02 14.52 32.07 14.89 31.18 12.3L30.54 10.44C27.6 12.39 24.71 14.51 22.12 16.87L20.73 18.14L22.33 19.03C24.96 20.55 23.61 24.49 20.55 24.27C19.64 24.21 18.79 23.73 18.27 22.98L17.4 21.75C15.22 24.25 13.16 26.9 11.37 29.68L10.67 30.76L11.9 31.08C15.3 32.02 15.01 36.84 11.5 37.44C10.47 37.63 9.36 37.33 8.56 36.64L7.88 36.06C7.22 37.42 6.6 38.8 6.02 40.2C6.57 39.9 7.14 39.63 7.72 39.38C7.92 38.96 8.13 38.55 8.34 38.13C8.72 38.38 9.13 38.56 9.56 38.69C11.16 38.16 12.82 37.79 14.52 37.52C14.83 37.23 15.1 36.9 15.32 36.52C16.77 34.28 15.86 31.18 13.62 29.82C14.77 28.25 16 26.73 17.29 25.27C19.32 27.06 22.81 27.12 24.77 25.09C26.82 23.22 26.84 19.97 25.17 17.91C26.48 16.85 27.83 15.83 29.22 14.87C29.86 15.69 30.74 16.35 31.73 16.71C36.79 18.52 41 13.5 39.12 9.28C40.55 8.62 42.01 8.01 43.49 7.46C43.91 8.38 44.57 9.2 45.42 9.77C49.89 12.82 55.36 8.98 54.71 4.39C56.21 4.12 57.73 3.89 59.26 3.72C59.78 6.37 62.31 8.6 65.21 8.45C68.13 8.46 70.56 6.12 70.93 3.44C72.5 3.54 74.06 3.69 75.61 3.9C75.52 4.9 75.7 5.91 76.14 6.81C77.61 10.02 82.21 11.08 84.99 8.84C85.82 8.21 86.45 7.35 86.81 6.4C88.38 6.9 89.92 7.47 91.44 8.09C91.07 9.04 90.97 10.09 91.17 11.07C91.73 14.47 95.79 16.58 99 15.15C99.98 14.74 100.83 14.06 101.43 13.21C102.88 14.12 104.3 15.1 105.68 16.12C104.1 18.24 104.27 21.49 106.38 23.28C108.42 25.21 111.81 25.07 113.82 23.29C115.1 24.63 116.31 26.03 117.46 27.47C113.87 30.05 115.05 36.11 120.03 36.67C121.16 36.8 122.32 36.53 123.28 35.96C124.25 37.7 125.13 39.49 125.92 41.31L125.93 41.31Z" fill="#FCFCFC" fill-opacity="1.000000" fill-rule="nonzero"/>
	<path id="Vector" d="M111.71 40.32L111.87 40.32C103.13 24.41 85.99 13.2 65.95 13.28C51 13.2 36.21 19.83 26.6 30.95C24.94 32.82 23.44 34.8 22.1 36.88C22.78 36.87 23.46 36.87 24.14 36.88C27.4 32.42 31.42 28.49 36.06 25.35C47.6 17.3 62.6 14.22 76.49 17.11C91.24 19.99 104.47 28.35 111.71 40.32Z" fill="#FCFCFC" fill-opacity="1.000000" fill-rule="nonzero"/>
	<path id="Vector" d="M117.35 44.91C111.57 44.75 105.77 48.45 104.25 53.4C107.51 48.92 111.72 46.9 116.83 46.9C121.94 46.89 126.14 48.97 129.29 53.24C127.79 49.04 123.06 45.06 117.35 44.91L117.35 44.91Z" fill="#FCFCFC" fill-opacity="1.000000" fill-rule="nonzero"/>
	<path id="Vector" d="M139.25 52.33C138.64 51.74 138.05 51.13 137.42 50.57C132.27 45.99 126.24 43.26 119.75 41.51C111.31 39.22 102.7 38.7 94.02 38.73C93.53 38.73 92.99 38.57 92.53 38.34C88.86 36.51 85.26 34.48 81.52 32.81C74.71 29.77 67.58 28.19 60.12 28.23C51.12 28.27 42.22 29.32 33.38 31.05C27.23 32.26 21.17 33.81 15.17 35.6L15.2 35.58C15.2 35.58 7.3 36.94 5.4 33.87L1.53 33.14C1.53 33.14 2.07 35.83 0.74 41.73C0.19 42.45 -0.1 43.28 0.02 44.27C0.34 46.78 1.88 48.57 3.49 50.51C3.51 50.21 3.53 50.11 3.53 50.01C3.75 39.28 20.27 38.75 24.75 39.74C32.55 41.48 36.42 41.86 57.14 54.85C57.19 54.76 45.51 45.82 38.8 42.17C37.27 41.34 35.59 40.82 33.96 40.22C32.38 39.64 30.76 39.15 29.16 38.62C29.18 38.52 29.21 38.41 29.24 38.31C31.48 38.84 33.73 39.31 35.96 39.89C39.37 40.8 42.73 42 46.19 42.68C50.75 43.57 55.37 44.21 59.99 44.73C68.36 45.69 100.23 47.29 100.68 47.24C100.16 47.07 68.8 42.5 63 41.72C58.79 41.15 54.56 40.7 50.39 39.93C48.52 39.58 46.75 38.62 44.95 37.89C42.74 36.99 40.55 36.03 38.35 35.1C38.05 34.97 37.76 34.8 37.47 34.64C37.47 34.54 37.48 34.44 37.48 34.34C39.35 34.03 41.2 33.68 43.07 33.4C50 32.35 56.96 31.69 63.98 31.88C66.34 31.94 68.67 32.16 70.97 32.51C75.98 33.89 80.74 35.99 85.34 38.52C85.44 38.57 85.52 38.66 85.71 38.81C83.32 38.55 81.07 38.24 78.81 38.07C77.69 37.98 76.86 37.68 76.39 36.54C76.19 36.07 75.81 35.51 75.39 35.36C74.26 34.94 73.07 34.67 71.88 34.45C70.97 34.28 70.5 34.62 70.08 35.49C69.37 36.97 70.38 38.75 71.97 38.86C75.19 39.09 78.41 39.35 81.63 39.6C84.57 39.82 87.51 40.13 90.45 40.25C93.83 40.39 97.21 40.32 100.59 40.44C106.98 40.68 113.29 41.56 119.48 43.28C125.24 44.88 130.42 47.45 133.92 52.76C134.02 52.9 134.24 53.05 134.4 53.05C136.06 52.97 137.71 52.85 139.53 52.74C139.36 52.5 139.31 52.4 139.25 52.34L139.25 52.33Z" fill="#FCFCFC" fill-opacity="1.000000" fill-rule="nonzero"/>
</svg>
